X: 611
T: Puopuo bianda xifu
%%abc-version 2.0
%%abcx-abcm2ps-target-version 5.9.1 (29 Sep 2008)
%%abc-creator hum2abc beta
%%abcx-conversion-date 2013/10/02 07:52:30
%%abc-edited-by Helmut Schaffrath
%%humdrum-veritas 1501972463
%%humdrum-veritas-data 1545974600
%%continueall 1
%%barnumbers 0
L: 1/16
M: 2/4
K: F
d2 d c d2 g2 [I:setbarnb 1]| 
f2 f d c2 A2 | 
d2 d f d c A2 | 
G2> F2G4 | 
G2 A2c4 | 
d c A G2< F2 D | 
G2 G A G F D C | 
D8 |]  



